branches/nugui/src/gui/icons/forcefield_minimise.svg

<?xml version="1.0" encoding="UTF-8" standalone="no"?>
<!-- Created with Inkscape (http://www.inkscape.org/) -->

<svg
   xmlns:dc="http://purl.org/dc/elements/1.1/"
   xmlns:cc="http://creativecommons.org/ns#"
   xmlns:rdf="http://www.w3.org/1999/02/22-rdf-syntax-ns#"
   xmlns:svg="http://www.w3.org/2000/svg"
   xmlns="http://www.w3.org/2000/svg"
   xmlns:xlink="http://www.w3.org/1999/xlink"
   xmlns:inkscape="http://www.inkscape.org/namespaces/inkscape"
   version="1.0"
   width="100"
   height="100"
   id="svg2">
  <metadata
     id="metadata2566">
    <rdf:RDF>
      <cc:Work
         rdf:about="">
        <dc:format>image/svg+xml</dc:format>
        <dc:type
           rdf:resource="http://purl.org/dc/dcmitype/StillImage" />
      </cc:Work>
    </rdf:RDF>
  </metadata>
  <defs
     id="defs4">
    <marker
       refX="0"
       refY="0"
       orient="auto"
       id="Arrow1Lend"
       style="overflow:visible">
      <path
         d="M 0,0 5,-5 -12.5,0 5,5 0,0 z"
         inkscape:connector-curvature="0"
         transform="matrix(-0.8,0,0,-0.8,-10,0)"
         id="path3173"
         style="fill-rule:evenodd;stroke:#000000;stroke-width:1pt;marker-start:none" />
    </marker>
    <linearGradient
       id="linearGradient3150">
      <stop
         id="stop3152"
         style="stop-color:#ffffff;stop-opacity:1"
         offset="0" />
      <stop
         id="stop3154"
         style="stop-color:#ffffff;stop-opacity:0"
         offset="1" />
    </linearGradient>
    <linearGradient
       x1="33.308819"
       y1="33.382355"
       x2="60.6898"
       y2="90.967102"
       id="linearGradient3156"
       xlink:href="#linearGradient3150"
       gradientUnits="userSpaceOnUse"
       gradientTransform="translate(3.0829104e-6,4.9780021e-7)" />
  </defs>
  <g
     transform="matrix(0.7595488,0,0,0.7595488,34.155007,1.3738507)"
     id="g3158">
    <g
       transform="matrix(1.4038248,0,0,1.4038248,-120.76413,12.140617)"
       id="g3437"
       style="stroke:#282828;stroke-width:2.00024962;stroke-miterlimit:4;stroke-opacity:1;stroke-dasharray:none">
      <path
         d="M 24.293239,26.831077 -9.2238601,31.896265 -24.398493,1.5848381 -0.25983245,-22.213842 29.833313,-6.6108075 z"
         transform="matrix(0.6874757,0,0,0.6874757,107.16222,10.199422)"
         id="path3433"
         style="fill:none;stroke:#282828;stroke-width:2.90955687;stroke-linecap:round;stroke-linejoin:round;stroke-miterlimit:4;stroke-opacity:1;stroke-dasharray:none;stroke-dashoffset:0" />
      <path
         d="m 120.22341,24.935469 -17.38789,2.627702 m 4.65033,-28.07106838 15.61162,8.09449198"
         inkscape:connector-curvature="0"
         id="path3435"
         style="fill:none;stroke:#282828;stroke-width:2.00024962;stroke-linecap:round;stroke-linejoin:round;stroke-miterlimit:4;stroke-opacity:1;stroke-dasharray:none;stroke-dashoffset:0" />
    </g>
    <path
       d="M 24.293239,26.831077 -9.2238601,31.896265 -24.398493,1.5848381 -0.25983245,-22.213842 29.833313,-6.6108075 z"
       transform="matrix(0.9650954,0,0,0.9650954,28.470028,25.034257)"
       id="path3428"
       style="fill:none;stroke:#000000;stroke-width:2.90955687;stroke-linecap:round;stroke-linejoin:round;stroke-miterlimit:4;stroke-opacity:1;stroke-dasharray:none;stroke-dashoffset:0" />
    <path
       d="M 46.805654,45.721086 22.396098,49.409919 M 28.924346,10.003058 50.840333,21.366307"
       inkscape:connector-curvature="0"
       id="path3430"
       style="fill:none;stroke:#000000;stroke-width:2.80764961;stroke-linecap:round;stroke-linejoin:round;stroke-miterlimit:4;stroke-opacity:1;stroke-dashoffset:0" />
  </g>
  <path
     d="m 11.924474,62.413509 0,30.799765 c 94.036726,0 76.871056,0 76.871056,0 0,0 0,-38.678074 0,-38.678074 0,0 -5.08334,-0.647857 -16.458085,28.129724 C 67.057004,96.024196 50.869116,78.989827 37.707438,39.674203 24.545761,0.3585805 35.30377,62.626026 11.924474,62.413509 z"
     inkscape:connector-curvature="0"
     id="path2163"
     style="fill:url(#linearGradient3156);fill-opacity:1;fill-rule:evenodd;stroke:#000000;stroke-width:1.38;stroke-linecap:butt;stroke-linejoin:miter;stroke-miterlimit:4;stroke-opacity:1;stroke-dasharray:none" />
  <path
     d="m 60.972082,52.859547 c 5.645563,19.194915 5.645563,19.194915 5.645563,19.194915"
     inkscape:connector-curvature="0"
     id="path3165"
     style="fill:none;stroke:#000000;stroke-width:0.89999998;stroke-linecap:butt;stroke-linejoin:miter;stroke-miterlimit:3.70000005;stroke-opacity:1;stroke-dasharray:none;marker-mid:none;marker-end:url(#Arrow1Lend)" />
</svg>

<?xml version="1.0" encoding="UTF-8" standalone="no"?>
<!-- Created with Inkscape (http://www.inkscape.org/) -->
<svg
   xmlns:svg="http://www.w3.org/2000/svg"
   xmlns="http://www.w3.org/2000/svg"
   xmlns:xlink="http://www.w3.org/1999/xlink"
   version="1.0"
   width="100"
   height="100"
   id="svg2">
  <defs
     id="defs4">
    <marker
       refX="0"
       refY="0"
       orient="auto"
       id="Arrow1Lend"
       style="overflow:visible">
      <path
         d="M 0,0 L 5,-5 L -12.5,0 L 5,5 L 0,0 z"
         transform="matrix(-0.8,0,0,-0.8,-10,0)"
         id="path3173"
         style="fill-rule:evenodd;stroke:#000000;stroke-width:1pt;marker-start:none" />
    </marker>
    <linearGradient
       id="linearGradient3150">
      <stop
         id="stop3152"
         style="stop-color:#ffffff;stop-opacity:1"
         offset="0" />
      <stop
         id="stop3154"
         style="stop-color:#ffffff;stop-opacity:0"
         offset="1" />
    </linearGradient>
    <linearGradient
       x1="33.308819"
       y1="33.382355"
       x2="60.6898"
       y2="90.967102"
       id="linearGradient3156"
       xlink:href="#linearGradient3150"
       gradientUnits="userSpaceOnUse"
       gradientTransform="translate(3.0829104e-6,4.9780021e-7)" />
  </defs>
  <g
     transform="matrix(0.7595488,0,0,0.7595488,34.155007,1.3738507)"
     id="g3158">
    <g
       transform="matrix(1.4038248,0,0,1.4038248,-120.76413,12.140617)"
       id="g3437"
       style="stroke:#282828;stroke-width:2.00024962;stroke-miterlimit:4;stroke-dasharray:none;stroke-opacity:1">
      <path
         d="M 24.293239,26.831077 L -9.2238601,31.896265 L -24.398493,1.5848381 L -0.25983245,-22.213842 L 29.833313,-6.6108075 L 24.293239,26.831077 z"
         transform="matrix(0.6874757,0,0,0.6874757,107.16222,10.199422)"
         id="path3433"
         style="fill:none;stroke:#282828;stroke-width:2.90955687;stroke-linecap:round;stroke-linejoin:round;stroke-miterlimit:4;stroke-dasharray:none;stroke-dashoffset:0;stroke-opacity:1" />
      <path
         d="M 120.22341,24.935469 L 102.83552,27.563171 M 107.48585,-0.50789738 L 123.09747,7.5865946"
         id="path3435"
         style="fill:none;stroke:#282828;stroke-width:2.00024962;stroke-linecap:round;stroke-linejoin:round;stroke-miterlimit:4;stroke-dasharray:none;stroke-dashoffset:0;stroke-opacity:1" />
    </g>
    <path
       d="M 24.293239,26.831077 L -9.2238601,31.896265 L -24.398493,1.5848381 L -0.25983245,-22.213842 L 29.833313,-6.6108075 L 24.293239,26.831077 z"
       transform="matrix(0.9650954,0,0,0.9650954,28.470028,25.034257)"
       id="path3428"
       style="fill:none;stroke:#000000;stroke-width:2.90955687;stroke-linecap:round;stroke-linejoin:round;stroke-miterlimit:4;stroke-dasharray:none;stroke-dashoffset:0;stroke-opacity:1" />
    <path
       d="M 46.805654,45.721086 L 22.396098,49.409919 M 28.924346,10.003058 L 50.840333,21.366307"
       id="path3430"
       style="fill:none;stroke:#000000;stroke-width:2.80764961;stroke-linecap:round;stroke-linejoin:round;stroke-miterlimit:4;stroke-dashoffset:0;stroke-opacity:1" />
  </g>
  <path
     d="M 11.924474,62.413509 L 11.924474,93.213274 C 105.9612,93.213274 88.79553,93.213274 88.79553,93.213274 C 88.79553,93.213274 88.79553,54.5352 88.79553,54.5352 C 88.79553,54.5352 83.71219,53.887343 72.337445,82.664924 C 67.057004,96.024196 50.869116,78.989827 37.707438,39.674203 C 24.545761,0.3585805 35.30377,62.626026 11.924474,62.413509 z"
     id="path2163"
     style="fill:url(#linearGradient3156);fill-opacity:1;fill-rule:evenodd;stroke:#000000;stroke-width:1.38;stroke-linecap:butt;stroke-linejoin:miter;stroke-miterlimit:4;stroke-dasharray:none;stroke-opacity:1" />
  <path
     d="M 60.972082,52.859547 C 66.617645,72.054462 66.617645,72.054462 66.617645,72.054462"
     id="path3165"
     style="fill:none;stroke:#000000;stroke-width:0.89999998;stroke-linecap:butt;stroke-linejoin:miter;marker-mid:none;marker-end:url(#Arrow1Lend);stroke-miterlimit:3.70000005;stroke-dasharray:none;stroke-opacity:1" />
</svg>
